dist/img/sprites/input-map.svg

<svg width="18" height="21" viewBox="0 0 18 21" fill="none" xmlns="http://www.w3.org/2000/svg">
<path fill-rule="evenodd" clip-rule="evenodd" d="M4.29297 9.12043C4.29297 7.87171 4.78902 6.67413 5.672 5.79115C6.55499 4.90816 7.75257 4.41211 9.00129 4.41211C10.25 4.41211 11.4476 4.90816 12.3306 5.79115C13.2136 6.67413 13.7096 7.87171 13.7096 9.12043C13.7096 10.3692 13.2136 11.5667 12.3306 12.4497C11.4476 13.3327 10.25 13.8288 9.00129 13.8288C7.75257 13.8288 6.55499 13.3327 5.672 12.4497C4.78902 11.5667 4.29297 10.3692 4.29297 9.12043ZM9.00129 5.89895C8.1469 5.89895 7.3275 6.23835 6.72336 6.8425C6.11921 7.44664 5.77981 8.26604 5.77981 9.12043C5.77981 9.97482 6.11921 10.7942 6.72336 11.3984C7.3275 12.0025 8.1469 12.3419 9.00129 12.3419C9.85568 12.3419 10.6751 12.0025 11.2792 11.3984C11.8834 10.7942 12.2228 9.97482 12.2228 9.12043C12.2228 8.26604 11.8834 7.44664 11.2792 6.8425C10.6751 6.23835 9.85568 5.89895 9.00129 5.89895Z" fill="#8C8C8C"/>
<path fill-rule="evenodd" clip-rule="evenodd" d="M0.600283 7.98947C0.76971 5.93447 1.70572 4.01832 3.22249 2.62146C4.73925 1.22461 6.72583 0.449212 8.78781 0.449219H9.21602C11.278 0.449212 13.2646 1.22461 14.7813 2.62146C16.2981 4.01832 17.2341 5.93447 17.4035 7.98947C17.5921 10.2785 16.8849 12.5514 15.431 14.3294L10.6801 20.1389C10.4767 20.3876 10.2207 20.5879 9.93049 20.7255C9.64026 20.8631 9.3231 20.9344 9.00191 20.9344C8.68073 20.9344 8.36356 20.8631 8.07334 20.7255C7.78312 20.5879 7.52709 20.3876 7.32377 20.1389L2.57282 14.3294C1.11881 12.5514 0.411638 10.2785 0.600283 7.98947ZM8.78781 1.93606C7.09924 1.93631 5.47249 2.57146 4.23047 3.71543C2.98845 4.85939 2.22196 6.42854 2.08316 8.11139C1.92615 10.0164 2.51462 11.908 3.72463 13.3877L8.47557 19.1983C8.53944 19.2764 8.61988 19.3394 8.71109 19.3827C8.80229 19.4259 8.90197 19.4484 9.00291 19.4484C9.10385 19.4484 9.20352 19.4259 9.29472 19.3827C9.38593 19.3394 9.46637 19.2764 9.53024 19.1983L14.2812 13.3877C15.4905 11.9077 16.0782 10.0161 15.9207 8.11139C15.7818 6.42837 15.0152 4.85908 13.773 3.71509C12.5308 2.5711 10.9038 1.93606 9.21503 1.93606H8.78781Z" fill="#8C8C8C"/>
</svg>

<svg width="18" height="21" viewBox="0 0 18 21" fill="none" xmlns="http://www.w3.org/2000/svg"><path fill-rule="evenodd" clip-rule="evenodd" d="M4.293 9.12a4.708 4.708 0 119.417 0 4.708 4.708 0 01-9.417 0zM9.001 5.9a3.221 3.221 0 100 6.443 3.221 3.221 0 000-6.443z" fill="#8C8C8C"/><path fill-rule="evenodd" clip-rule="evenodd" d="M.6 7.99A8.215 8.215 0 018.788.45h.428a8.215 8.215 0 018.188 7.54 8.865 8.865 0 01-1.973 6.34l-4.75 5.809a2.168 2.168 0 01-3.357 0l-4.751-5.81A8.865 8.865 0 01.6 7.99zm8.188-6.054a6.728 6.728 0 00-6.705 6.175 7.378 7.378 0 001.642 5.277l4.75 5.81a.682.682 0 001.055 0l4.751-5.81a7.378 7.378 0 001.64-5.277 6.729 6.729 0 00-6.706-6.175h-.427z" fill="#8C8C8C"/></svg>
